src/assets/filled/VideoPlay.svg

<svg width="24" height="24" viewBox="0 0 24 24"  xmlns="http://www.w3.org/2000/svg">
<path d="M14.73 2H9.27002V6.36H14.73V2Z" />
<path d="M16.23 2V6.36H21.87C21.36 3.61 19.33 2.01 16.23 2Z" />
<path d="M2 7.86011V16.1901C2 19.8301 4.17 22.0001 7.81 22.0001H16.19C19.83 22.0001 22 19.8301 22 16.1901V7.86011H2ZM14.44 16.1801L12.36 17.3801C11.92 17.6301 11.49 17.7601 11.09 17.7601C10.79 17.7601 10.52 17.6901 10.27 17.5501C9.69 17.2201 9.37 16.5401 9.37 15.6601V13.2601C9.37 12.3801 9.69 11.7001 10.27 11.3701C10.85 11.0301 11.59 11.0901 12.36 11.5401L14.44 12.7401C15.21 13.1801 15.63 13.8001 15.63 14.4701C15.63 15.1401 15.2 15.7301 14.44 16.1801Z" />
<path d="M7.76988 2C4.66988 2.01 2.63988 3.61 2.12988 6.36H7.76988V2Z" />
</svg>

<?xml version="1.0" encoding="UTF-8"?>
<svg width="24" height="24" viewBox="0 0 24 24" xmlns="http://www.w3.org/2000/svg">
 <path d="M14.73 2H9.27002V6.36H14.73V2Z"/>
 <path d="m16.23 2v4.36h5.64c-0.51-2.75-2.54-4.35-5.64-4.36z"/>
 <path d="m2 7.8601v8.33c0 3.64 2.17 5.81 5.81 5.81h8.38c3.64 0 5.81-2.17 5.81-5.81v-8.33h-20zm12.44 8.32-2.08 1.2c-0.44 0.25-0.87 0.38-1.27 0.38-0.3 0-0.57-0.07-0.82-0.21-0.58-0.33-0.9-1.01-0.9-1.89v-2.4c0-0.88 0.32-1.56 0.9-1.89 0.58-0.34 1.32-0.28 2.09 0.17l2.08 1.2c0.77 0.44 1.19 1.06 1.19 1.73s-0.43 1.26-1.19 1.71z"/>
 <path d="m7.7699 2c-3.1 0.01-5.13 1.61-5.64 4.36h5.64v-4.36z"/>
</svg>
